images/icons/spot.svg

<svg width="16" height="16" viewBox="0 0 16 16" fill="none" xmlns="http://www.w3.org/2000/svg">
<path d="M8 0C4.89838 0 2.375 2.52338 2.375 5.625C2.375 6.67294 2.66528 7.69563 3.21466 8.58288L7.67981 15.7784C7.76534 15.9163 7.91603 16 8.07809 16C8.07934 16 8.08056 16 8.08181 16C8.24528 15.9987 8.39628 15.9124 8.48025 15.7721L12.8316 8.50688C13.3507 7.63838 13.625 6.64184 13.625 5.625C13.625 2.52338 11.1016 0 8 0ZM12.0271 8.02556L8.071 14.6308L4.01147 8.08894C3.55419 7.35044 3.30625 6.49844 3.30625 5.625C3.30625 3.04031 5.41531 0.93125 8 0.93125C10.5847 0.93125 12.6906 3.04031 12.6906 5.625C12.6906 6.47253 12.459 7.30275 12.0271 8.02556Z" fill="white"/>
<path d="M8 2.8125C6.44919 2.8125 5.1875 4.07419 5.1875 5.625C5.1875 7.16591 6.42866 8.4375 8 8.4375C9.59072 8.4375 10.8125 7.14897 10.8125 5.625C10.8125 4.07419 9.55081 2.8125 8 2.8125ZM8 7.50625C6.96072 7.50625 6.11875 6.66147 6.11875 5.625C6.11875 4.59113 6.96613 3.74375 8 3.74375C9.03387 3.74375 9.87813 4.59113 9.87813 5.625C9.87813 6.64634 9.05575 7.50625 8 7.50625Z" fill="white"/>
</svg>

<svg width="16" height="16" fill="none" xmlns="http://www.w3.org/2000/svg"><path d="M8 0a5.631 5.631 0 00-5.625 5.625c0 1.048.29 2.07.84 2.958l4.465 7.195a.469.469 0 00.398.222h.004a.469.469 0 00.398-.228l4.352-7.265a5.62 5.62 0 00.793-2.882A5.631 5.631 0 008 0zm4.027 8.026L8.071 14.63l-4.06-6.542a4.682 4.682 0 01-.705-2.464A4.704 4.704 0 018 .931a4.7 4.7 0 014.69 4.694c0 .848-.231 1.678-.663 2.4z" fill="#fff"/><path d="M8 2.813a2.816 2.816 0 00-2.813 2.812A2.809 2.809 0 008 8.438a2.807 2.807 0 002.813-2.813A2.816 2.816 0 008 2.812zm0 4.693a1.883 1.883 0 01-1.881-1.881c0-1.034.847-1.881 1.881-1.881s1.878.847 1.878 1.881A1.88 1.88 0 018 7.506z" fill="#fff"/></svg>
